X: 16927
T: Have A Drink With Me
R: jig
M: 6/8
K: Gmajor
|:BAG EED|EGD EGA|BAG EED|EAA AGA|
BAG EED|EGD EGA|BAG EED|EGG G3:|
|:c2d efg|ded BAG|c2d efg|def gdB|
c2d efg|ded BAG|BAG EED|EGG G3:|

